public/Figma.svg

<svg width="94" height="48" viewBox="0 0 94 48" fill="none" xmlns="http://www.w3.org/2000/svg">
<path d="M0 8V34.5313L3.39444 34.5444V21.9105H11.5542V18.5678H3.38139V11.3296H14.0217V8H0ZM20.1056 13.3957C20.6942 13.3957 21.2587 13.16 21.6749 12.7405C22.0912 12.3209 22.325 11.7518 22.325 11.1585C22.325 10.5651 22.0912 9.99607 21.6749 9.5765C21.2587 9.15694 20.6942 8.92122 20.1056 8.92122C19.5169 8.92122 18.9524 9.15694 18.5362 9.5765C18.1199 9.99607 17.8861 10.5651 17.8861 11.1585C17.8861 11.7518 18.1199 12.3209 18.5362 12.7405C18.9524 13.16 19.5169 13.3957 20.1056 13.3957ZM18.3953 16.7253V34.5444H21.7897V16.7253H18.3953Z" fill="black"/>
<path fill-rule="evenodd" clip-rule="evenodd" d="M34.3361 16.212C29.845 16.212 26.7116 20.0417 26.7116 24.5952C26.7116 29.1487 29.845 32.9783 34.3361 32.9783C36.3988 32.9783 38.0961 32.1887 39.3363 30.8727V33.2416C39.345 33.9494 39.2143 34.6519 38.952 35.3085C38.6896 35.9651 38.3008 36.5627 37.8079 37.0669C37.315 37.5711 36.7278 37.9718 36.0804 38.2459C35.4329 38.52 34.738 38.6619 34.0358 38.6636C32.9522 38.6636 31.8816 38.2425 31.033 37.6371L29.3358 40.5982C30.6482 41.4533 32.1652 41.9355 33.7268 41.994C35.2884 42.0524 36.8367 41.6849 38.2083 40.9302C39.58 40.1756 40.7241 39.0617 41.5201 37.7061C42.3161 36.3506 42.7344 34.8036 42.7308 33.2284V16.7385H39.3363V18.3309C38.0961 17.0148 36.3988 16.2252 34.3361 16.2252V16.212ZM30.093 24.5952C30.093 21.7657 32.2341 19.5416 34.7147 19.5416C37.1952 19.5416 39.3233 21.7789 39.3233 24.5952C39.3233 27.4247 37.1822 29.6356 34.7147 29.6356C32.2341 29.6356 30.093 27.4247 30.093 24.5952Z" fill="black"/>
<path d="M54.9247 19.5417C53.9538 19.559 53.0288 19.9608 52.3496 20.6602C51.6704 21.3597 51.2916 22.3005 51.2952 23.2792V34.5445H47.9008V16.7254H51.2952V18.3573C51.8031 17.6788 52.4628 17.1308 53.2205 16.758C53.9783 16.3853 54.8127 16.1982 55.6558 16.2121C58.0319 16.2121 59.8597 17.3966 60.9041 19.2127C61.4868 18.3023 62.2843 17.5516 63.2252 17.028C64.1662 16.5044 65.2213 16.224 66.2961 16.2121C70.1474 16.2121 72.5627 19.3443 72.5627 23.2266V34.5445H69.1944V23.2661C69.198 22.2873 68.8192 21.3465 68.14 20.6471C67.4608 19.9476 66.5358 19.5458 65.5649 19.5285C64.5941 19.5458 63.6691 19.9476 62.9899 20.6471C62.3107 21.3465 61.9319 22.2873 61.9355 23.2661V34.5313H58.541V23.2661C58.5447 22.2896 58.1677 21.3507 57.4913 20.6516C56.8149 19.9525 55.8932 19.5492 54.9247 19.5285V19.5417Z" fill="black"/>
<path fill-rule="evenodd" clip-rule="evenodd" d="M90.6186 18.752C89.8478 17.9418 88.9211 17.2987 87.8952 16.862C86.8693 16.4252 85.7658 16.2041 84.6522 16.2121C79.6128 16.2121 76.0356 20.5024 76.0356 25.6349C76.0356 30.7675 79.6128 35.0577 84.6522 35.0577C85.7655 35.0634 86.8683 34.8412 87.8939 34.4046C88.9194 33.9681 89.8464 33.3261 90.6186 32.5178V34.5445H94V16.7254H90.6056V18.752H90.6186ZM79.4169 25.6349C79.4169 22.2395 82.002 19.5417 85.0178 19.5417C88.0206 19.5417 90.6186 22.2395 90.6186 25.6349C90.6186 29.0303 88.0336 31.715 85.0178 31.715C82.015 31.715 79.4169 29.0303 79.4169 25.6349Z" fill="black"/>
</svg>

<svg width="94" height="48" fill="none" xmlns="http://www.w3.org/2000/svg"><path d="M0 8v26.531l3.394.013V21.911h8.16v-3.343H3.381V11.33h10.64V8H0Zm20.106 5.396a2.21 2.21 0 0 0 1.569-.655 2.246 2.246 0 0 0 0-3.165 2.21 2.21 0 0 0-3.139 0 2.246 2.246 0 0 0 0 3.165c.416.419.98.655 1.57.655Zm-1.71 3.33v17.818h3.394V16.725h-3.395Z" fill="#000"/><path fill-rule="evenodd" clip-rule="evenodd" d="M34.336 16.212c-4.491 0-7.624 3.83-7.624 8.383 0 4.554 3.133 8.383 7.624 8.383 2.063 0 3.76-.79 5-2.105v2.369a5.394 5.394 0 0 1-1.528 3.825 5.277 5.277 0 0 1-3.772 1.597c-1.084 0-2.154-.422-3.003-1.027l-1.697 2.961a8.626 8.626 0 0 0 8.873.332 8.713 8.713 0 0 0 3.311-3.224 8.804 8.804 0 0 0 1.21-4.478v-16.49h-3.394v1.593c-1.24-1.316-2.937-2.106-5-2.106v-.013Zm-4.243 8.383c0-2.83 2.141-5.053 4.622-5.053 2.48 0 4.608 2.237 4.608 5.053 0 2.83-2.14 5.04-4.608 5.04-2.48 0-4.622-2.21-4.622-5.04Z" fill="#000"/><path d="M54.925 19.542a3.68 3.68 0 0 0-2.575 1.118 3.74 3.74 0 0 0-1.055 2.62v11.264h-3.394V16.726h3.394v1.632a5.364 5.364 0 0 1 1.925-1.599 5.319 5.319 0 0 1 2.436-.546c2.376 0 4.204 1.185 5.248 3a6.523 6.523 0 0 1 2.321-2.184 6.462 6.462 0 0 1 3.071-.816c3.851 0 6.267 3.132 6.267 7.015v11.317h-3.369V23.267a3.74 3.74 0 0 0-1.054-2.619 3.68 3.68 0 0 0-2.575-1.118 3.68 3.68 0 0 0-2.575 1.118 3.74 3.74 0 0 0-1.055 2.62V34.53h-3.394V23.266a3.74 3.74 0 0 0-1.05-2.614 3.68 3.68 0 0 0-2.566-1.123v.013Z" fill="#000"/><path fill-rule="evenodd" clip-rule="evenodd" d="M90.619 18.752a8.184 8.184 0 0 0-2.724-1.89 8.128 8.128 0 0 0-3.243-.65c-5.04 0-8.616 4.29-8.616 9.423 0 5.132 3.577 9.423 8.616 9.423a8.168 8.168 0 0 0 3.242-.653 8.223 8.223 0 0 0 2.725-1.887v2.026H94V16.726h-3.394v2.027h.013Zm-11.202 6.883c0-3.396 2.585-6.093 5.6-6.093 3.004 0 5.602 2.697 5.602 6.093 0 3.395-2.585 6.08-5.601 6.08-3.003 0-5.601-2.685-5.601-6.08Z" fill="#000"/></svg>
